dist/images/src/logo-hotelchamp.svg

<svg width="174" height="32" fill="none" xmlns="http://www.w3.org/2000/svg"><path fill-rule="evenodd" clip-rule="evenodd" d="M17.374 10.913c-3.805 0-7.105 1.365-9.022 3.647V0H0v31.909h8.352v-5.153c0-5.19 2.28-8.165 6.252-8.165 2.723 0 4.287 1.032 4.922 3.248.413 1.443.496 3.305.496 5.839v4.23h8.351V25.77c0-5.726-.543-8.44-2.161-10.767-2.005-2.751-4.895-4.09-8.838-4.09zm9.758 2.357c.482.693.875 1.412 1.195 2.205V.012h-8.352v8.914c3.033.504 5.395 1.928 7.157 4.344zM48.84 25.474h-3.026V8.304h3.026v6.943h7.665V8.303h3.025v17.17h-3.075l.05-7.524H48.84v7.525zm19.01-12.298c3.656 0 6 2.475 6 6.338 0 3.839-2.318 6.262-6 6.262-3.68 0-6-2.423-6-6.262 0-3.863 2.345-6.338 6-6.338zm14.598 12.4c-.554.126-1.285.201-2.142.201-1.16 0-2.37-.227-3.026-1.034-.48-.58-.504-1.264-.504-2.424v-6.617h-2.57v-2.248h2.57v-4.19l2.874-.633v4.823h2.798v2.248H79.65v6.136c0 .682.1 1.01.328 1.238.226.251.706.328 1.21.328.505 0 .958-.05 1.26-.1v2.272zm12.507-2.828c-.53.833-2.144 3.028-5.649 3.028-3.554 0-5.975-2.524-5.975-6.412 0-3.711 2.547-6.187 5.9-6.187 3.833 0 5.673 2.65 5.673 6.338 0 .202-.025.53-.025.732h-8.75c.203 1.642 1.211 3.055 3.329 3.055 2.168 0 3.126-1.464 3.503-2.07l1.994 1.516zm2.169 2.727h2.874V8.302h-2.874v17.173zm13.79-7.652c-.428-1.287-1.336-2.171-2.798-2.171-1.917 0-3.128 1.414-3.128 3.813s1.237 3.812 3.128 3.812c1.638 0 2.445-.958 2.874-2.045l2.319 1.238c-.554 1.287-2.193 3.307-5.27 3.307-3.479 0-5.9-2.222-5.9-6.262 0-4.04 2.598-6.338 5.9-6.338 2.8 0 4.538 1.489 5.27 3.385l-2.395 1.261zm14.75 7.652h-2.875V19.39c0-.91-.025-1.693-.201-2.297-.252-.86-.883-1.39-2.12-1.39-1.788 0-2.645 1.39-2.645 3.332v6.44h-2.875V8.304h2.875v6.69c.554-1.06 1.916-1.844 3.73-1.844 1.363 0 2.496.405 3.305 1.49.554.784.805 1.693.805 4.016v6.818l.001.001zm12.303-2.752c0 .758.102 1.009.782 1.009h.15v1.895c-.15.023-.53.126-1.36.126-1.11 0-1.89-.305-2.119-1.238h-.024c-.48.555-1.437 1.288-3.58 1.288-2.32 0-4.235-1.162-4.235-3.788 0-.91.252-1.59.68-2.12.73-.885 1.992-1.364 3.556-1.642l2.647-.454c.63-.127.756-.179.756-.632v-.202c0-1.01-.656-1.514-2.144-1.514-1.613 0-2.445.68-2.421 2.094l-2.698-.176c-.048-2.955 2.372-4.14 5.246-4.14 2.75 0 4.764.882 4.764 3.533v5.961zm13.036-7.703c.73-.882 1.941-1.868 4.11-1.868 1.538 0 2.546.455 3.176 1.162.756.857 1.057 1.69 1.057 4.343v6.818h-2.872v-6.089c0-2.17-.152-3.685-2.32-3.685-1.79 0-2.597 1.39-2.597 3.333v6.439h-2.873v-6.087c0-2.17-.151-3.685-2.32-3.685-1.765 0-2.596 1.39-2.596 3.333v6.439h-2.875v-12.02h2.875v1.539c.58-1.008 1.865-1.842 3.756-1.842 1.235 0 2.268.378 2.975 1.162.2.226.353.454.504.706v.002zm14.044 9.192v6.06h-2.874V13.454h2.874v1.313c.655-.86 1.967-1.616 3.53-1.616 3.252 0 5.32 2.627 5.32 6.363 0 3.611-2.118 6.262-5.32 6.262-1.613 0-2.773-.63-3.53-1.565v.001zm-97.197-.909c1.841 0 3.152-1.466 3.152-3.838 0-2.424-1.26-3.839-3.152-3.839-1.89 0-3.151 1.44-3.151 3.839s1.31 3.838 3.151 3.838zm18.356-5.202h5.848c-.075-1.565-1.21-2.627-2.824-2.627-1.639 0-2.948 1.189-3.024 2.627zm49.014 3.105v-1.463c-.43.152-.782.253-1.64.428l-1.107.228c-1.363.278-1.968.631-1.968 1.59 0 .985.654 1.644 2.068 1.644 1.561 0 2.647-.785 2.647-2.427zm32.75 2.071c1.842 0 3.05-1.44 3.05-3.812 0-2.424-1.208-3.839-3.05-3.839-1.815 0-3.05 1.515-3.05 3.839 0 2.323 1.235 3.812 3.05 3.812z" fill="#B2B2B2"/></svg>

<svg width="174" height="32" viewBox="0 0 174 32" fill="none" xmlns="http://www.w3.org/2000/svg">
<path fill-rule="evenodd" clip-rule="evenodd" d="M17.374 10.913C13.569 10.913 10.269 12.278 8.352 14.56V-3.21865e-09H0V31.909H8.352V26.756C8.352 21.566 10.632 18.591 14.604 18.591C17.327 18.591 18.891 19.623 19.526 21.839C19.939 23.282 20.022 25.144 20.022 27.678V31.908H28.373V25.77C28.373 20.044 27.83 17.33 26.212 15.003C24.207 12.252 21.317 10.913 17.374 10.913ZM27.132 13.27C27.614 13.963 28.007 14.682 28.327 15.475V0.012H19.975V8.926C23.008 9.43 25.37 10.854 27.132 13.27ZM48.84 25.474H45.814V8.304H48.84V15.247H56.505V8.303H59.53V25.473H56.455L56.505 17.949H48.84V25.474ZM67.85 13.176C71.506 13.176 73.85 15.651 73.85 19.514C73.85 23.353 71.532 25.776 67.85 25.776C64.17 25.776 61.85 23.353 61.85 19.514C61.85 15.651 64.195 13.176 67.85 13.176ZM82.448 25.576C81.894 25.702 81.163 25.777 80.306 25.777C79.146 25.777 77.936 25.55 77.28 24.743C76.8 24.163 76.776 23.479 76.776 22.319V15.702H74.206V13.454H76.776V9.264L79.65 8.631V13.454H82.448V15.702H79.65V21.838C79.65 22.52 79.75 22.848 79.978 23.076C80.204 23.327 80.684 23.404 81.188 23.404C81.693 23.404 82.146 23.354 82.448 23.304V25.576ZM94.955 22.748C94.425 23.581 92.811 25.776 89.306 25.776C85.752 25.776 83.331 23.252 83.331 19.364C83.331 15.653 85.878 13.177 89.231 13.177C93.064 13.177 94.904 15.827 94.904 19.515C94.904 19.717 94.879 20.045 94.879 20.247H86.129C86.332 21.889 87.34 23.302 89.458 23.302C91.626 23.302 92.584 21.838 92.961 21.232L94.955 22.748ZM97.124 25.475H99.998V8.302H97.124V25.474V25.475ZM110.914 17.823C110.486 16.536 109.578 15.652 108.116 15.652C106.199 15.652 104.988 17.066 104.988 19.465C104.988 21.864 106.225 23.277 108.116 23.277C109.754 23.277 110.561 22.319 110.99 21.232L113.309 22.47C112.755 23.757 111.116 25.777 108.039 25.777C104.56 25.777 102.139 23.555 102.139 19.515C102.139 15.475 104.737 13.177 108.039 13.177C110.839 13.177 112.577 14.666 113.309 16.562L110.914 17.823ZM125.664 25.475H122.789V19.39C122.789 18.48 122.764 17.697 122.588 17.093C122.336 16.233 121.705 15.703 120.468 15.703C118.68 15.703 117.823 17.093 117.823 19.035V25.475H114.948V8.304H117.823V14.994C118.377 13.934 119.739 13.15 121.553 13.15C122.916 13.15 124.049 13.555 124.858 14.64C125.412 15.424 125.663 16.333 125.663 18.656V25.474L125.664 25.475ZM137.967 22.723C137.967 23.481 138.069 23.732 138.749 23.732H138.899V25.627C138.749 25.65 138.369 25.753 137.539 25.753C136.429 25.753 135.649 25.448 135.42 24.515H135.396C134.916 25.07 133.959 25.803 131.816 25.803C129.496 25.803 127.581 24.641 127.581 22.015C127.581 21.105 127.833 20.425 128.261 19.895C128.991 19.01 130.253 18.531 131.817 18.253L134.464 17.799C135.094 17.672 135.22 17.62 135.22 17.167V16.965C135.22 15.955 134.564 15.451 133.076 15.451C131.463 15.451 130.631 16.131 130.655 17.545L127.957 17.369C127.909 14.414 130.329 13.229 133.203 13.229C135.953 13.229 137.967 14.111 137.967 16.762V22.722V22.723ZM151.003 15.02C151.733 14.138 152.944 13.152 155.113 13.152C156.651 13.152 157.659 13.607 158.289 14.314C159.045 15.171 159.346 16.004 159.346 18.657V25.475H156.474V19.386C156.474 17.216 156.322 15.701 154.154 15.701C152.364 15.701 151.557 17.091 151.557 19.034V25.473H148.684V19.386C148.684 17.216 148.533 15.701 146.364 15.701C144.599 15.701 143.768 17.091 143.768 19.034V25.473H140.893V13.453H143.768V14.992C144.348 13.984 145.633 13.15 147.524 13.15C148.759 13.15 149.792 13.528 150.499 14.312C150.699 14.538 150.852 14.766 151.003 15.018V15.02ZM165.047 24.212V30.272H162.173V13.454H165.047V14.767C165.702 13.907 167.014 13.151 168.577 13.151C171.829 13.151 173.897 15.778 173.897 19.514C173.897 23.125 171.779 25.776 168.577 25.776C166.964 25.776 165.804 25.146 165.047 24.211V24.212ZM67.85 23.303C69.691 23.303 71.002 21.837 71.002 19.465C71.002 17.041 69.742 15.626 67.85 15.626C65.96 15.626 64.699 17.066 64.699 19.465C64.699 21.864 66.009 23.303 67.85 23.303ZM86.206 18.101H92.054C91.979 16.536 90.844 15.474 89.23 15.474C87.591 15.474 86.282 16.663 86.206 18.101ZM135.22 21.206V19.743C134.79 19.895 134.438 19.996 133.58 20.171L132.473 20.399C131.11 20.677 130.505 21.03 130.505 21.989C130.505 22.974 131.159 23.633 132.573 23.633C134.134 23.633 135.22 22.848 135.22 21.206ZM167.97 23.277C169.812 23.277 171.02 21.837 171.02 19.465C171.02 17.041 169.812 15.626 167.97 15.626C166.155 15.626 164.92 17.141 164.92 19.465C164.92 21.788 166.155 23.277 167.97 23.277Z" fill="#B2B2B2"/>
</svg>
